symbols/web/5k/materialsymbolsrounded/5k_wght200gradN25fill1_20px.svg

<svg xmlns="http://www.w3.org/2000/svg" height="20" width="20"><path d="M11.125 12.188q.125 0 .229-.105.104-.104.104-.271v-1.604l1.813 1.875q.041.063.104.084.063.021.104.021.25 0 .344-.198.094-.198-.052-.386l-1.583-1.646 1.583-1.583q.146-.167.073-.375t-.323-.208q-.083 0-.146.041-.063.042-.083.063L11.458 9.75V8.125q0-.125-.093-.229-.094-.104-.24-.104-.167 0-.271.114-.104.115-.104.24v3.687q0 .146.094.25.094.105.281.105Zm-4.937 0h2.229q.271 0 .458-.178.187-.177.187-.448v-1.25q0-.25-.177-.437t-.447-.187H6.542V8.542h2.187q.125 0 .229-.104.104-.105.104-.271 0-.146-.104-.261-.104-.114-.25-.114h-2.25q-.25 0-.448.187-.198.188-.198.459v1.25q0 .25.188.437t.458.187h1.875v1.146H6.167q-.146 0-.25.104-.105.105-.105.25 0 .146.115.261.115.115.261.115Zm-1.376 4.354q-.583 0-.968-.386-.386-.385-.386-.968V4.812q0-.583.386-.968.385-.386.968-.386h10.376q.583 0 .968.386.386.385.386.968v10.376q0 .583-.386.968-.385.386-.968.386Z"/></svg>

<svg xmlns="http://www.w3.org/2000/svg" height="20" width="20"><path d="M11.125 12.188Q11.25 12.188 11.354 12.083Q11.458 11.979 11.458 11.812V10.208L13.271 12.083Q13.312 12.146 13.375 12.167Q13.438 12.188 13.479 12.188Q13.729 12.188 13.823 11.99Q13.917 11.792 13.771 11.604L12.188 9.958L13.771 8.375Q13.917 8.208 13.844 8Q13.771 7.792 13.521 7.792Q13.438 7.792 13.375 7.833Q13.312 7.875 13.292 7.896L11.458 9.75V8.125Q11.458 8 11.365 7.896Q11.271 7.792 11.125 7.792Q10.958 7.792 10.854 7.906Q10.75 8.021 10.75 8.146V11.833Q10.75 11.979 10.844 12.083Q10.938 12.188 11.125 12.188ZM6.188 12.188H8.417Q8.688 12.188 8.875 12.01Q9.062 11.833 9.062 11.562V10.312Q9.062 10.062 8.885 9.875Q8.708 9.688 8.438 9.688H6.542V8.542H8.729Q8.854 8.542 8.958 8.438Q9.062 8.333 9.062 8.167Q9.062 8.021 8.958 7.906Q8.854 7.792 8.708 7.792H6.458Q6.208 7.792 6.01 7.979Q5.812 8.167 5.812 8.438V9.688Q5.812 9.938 6 10.125Q6.188 10.312 6.458 10.312H8.333V11.458H6.167Q6.021 11.458 5.917 11.562Q5.812 11.667 5.812 11.812Q5.812 11.958 5.927 12.073Q6.042 12.188 6.188 12.188ZM4.812 16.542Q4.229 16.542 3.844 16.156Q3.458 15.771 3.458 15.188V4.812Q3.458 4.229 3.844 3.844Q4.229 3.458 4.812 3.458H15.188Q15.771 3.458 16.156 3.844Q16.542 4.229 16.542 4.812V15.188Q16.542 15.771 16.156 16.156Q15.771 16.542 15.188 16.542Z"/></svg>
